X:7
T:Boys of Tandernagee, The
T:Rollicking Boys around Tandernagee, The
R:jig
D:based on the Norbek collection #152, chords by Eric
Z:id:hn-jig-152
M:6/8
L: 1/8
Q: 3/8=112
K:Edor
"Em"BAB E3|BAB "Bm"d2B|"D"AFE DED|AFD "Bm"FGA|
"Em"BAB E3|BAB "Bm"def|"D"edB AFA|"Em"BEE E2A:|
"Em"Bee efe|"D"def afd|"Em"edd "D"dcd|"Bm"Bcd dBA|
"Em"Bee efe|"D"def afd|"Em"edB "D"AFA|"Bm"BEE "Em"E2A:|
